X: 3109
T: CORRIEGILLS
C: Carl Volti
Q:"Strathspey."
R: Strathspey.
%R:strathspey
B: James Kerr "Merry Melodies" v.3 p.13 #109
Z: 2016 John Chambers <jc:trillian.mit.edu>
M: C
L: 1/8
K: A
|:\
vE<uE vE>uF vE>vFuA>uB | c>Ad>c B>AF<A |\
E<E E>F E>FA>B | c<A d>c B2A2 ::\
(c<e) ue>uf a>gf>e |
f>ec>A F<A E<A |\
[1 c<ee>f a>gf>e | c<A d>c B2A2 :|\
[2 E<E E>F E>FA>B | c<A d>c B2A2 |]

%%sep 1 1 500
%%sep 1 1 500

